/* XPM */
static char * maximize_toggled_prelight_xpm[] = {
"24 26 4 1",
" 	c None",
".	c #1a1b1f",
"+	c #aaabad",
"@	c #1a1b1f",
"@@@@@@@@@@@@@@@@@@@@@@@@",
"........................",
"........................",
"........................",
"........................",
"........................",
"........................",
"........................",
"........................",
"........++++++++........",
"........++++++++........",
"........++....++........",
"........++....++........",
"........++....++........",
"........++....++........",
"........++++++++........",
"........++++++++........",
"........................",
"........................",
"........................",
"........................",
"........................",
"........................",
"........................",
"........................",
"........................"};
