/* XPM */
static char * shade_prelight_xpm[] = {
"24 26 4 1",
" 	c None",
".	c #1a1b1f",
"+	c #dadbdd",
"@	c #c75465",
"@@@@@@@@@@@@@@@@@@@@@@@@",
"........................",
"........................",
"........................",
"........................",
"........................",
"........................",
"........................",
"........................",
"...........++...........",
"..........++++..........",
".........++++++.........",
"........++++++++........",
".......+++.++.+++.......",
"...........++...........",
"...........++...........",
"...........++...........",
"........................",
"........................",
"........................",
"........................",
"........................",
"........................",
"........................",
"........................",
"........................"};
